X:407
M:C|
L:1/8
K:D
f/g/|adfd fadf|gfed cdeg|adfd fadf|geaf d/d/d df/g/|
adfd fadf|gfed cdeg|fdAd FdAF|Egfe d/d/d d||

